16x16/apps/tamtam-app.svg

<svg xmlns="http://www.w3.org/2000/svg" width="16" height="16" version="1">
 <rect style="fill:#5068f0" width="16" height="16" x="0" y="0" rx="8" ry="8"/>
 <path style="fill:#f4f4f7" d="M 8 3 A 5.0000002 5.0000002 0 0 0 3 8 A 5.0000002 5.0000002 0 0 0 8 13 A 5.0000002 5.0000002 0 0 0 13 8 A 5.0000002 5.0000002 0 0 0 8 3 z M 5 8 L 11 8 C 11 9.6568542 9.656854 11 8 11 C 6.3431461 11 5 9.6568542 5 8 z"/>
 <path style="fill:#f4f4f7" d="m 5.2166276,10.666735 a 0.21168765,0.25002386 0 0 0 -0.2166275,0.249998 v 1.416011 1.416985 a 0.21168765,0.25002386 0 0 0 0.3174996,0.216796 l 1.0384888,-0.708981 1.0384888,-0.708005 a 0.21168765,0.25002386 0 0 0 0,-0.432615 L 6.3559885,11.40892 5.3174997,10.699938 A 0.21168765,0.25002386 0 0 0 5.2166279,10.66673 Z"/>
</svg>

<svg xmlns="http://www.w3.org/2000/svg" width="16" height="16" version="1"><rect style="fill:#5068f0" width="16" height="16" rx="8" ry="8"/><path style="fill:#f4f4f7" d="M8 3a5 5 0 0 0-5 5 5 5 0 0 0 5 5 5 5 0 0 0 5-5 5 5 0 0 0-5-5zM5 8h6a3 3 0 0 1-6 0z"/><path style="fill:#f4f4f7" d="M5.217 10.667a.212.25 0 0 0-.217.25v2.833a.212.25 0 0 0 .317.217l1.039-.71 1.038-.707a.212.25 0 0 0 0-.433l-1.038-.708-1.039-.71a.212.25 0 0 0-.1-.032z"/></svg>
